assets/images/MCCGroupIcons/MCC-Commuter.svg

<svg xmlns="http://www.w3.org/2000/svg" viewBox="0 0 40 40"><style type="text/css">.st0{fill-rule:evenodd;clip-rule:evenodd}</style><path fill-rule="evenodd" d="M6 7.38304C6 5.66132 7.10435 4.1407 8.78335 3.75953C11.2917 3.19007 15.3008 2.5 20 2.5C24.6992 2.5 28.7083 3.19007 31.2166 3.75953C32.8956 4.1407 34 5.66132 34 7.38304V27.5C34 29.1569 32.6569 30.5 31 30.5H29.9664L31.8276 34.6877C32.2762 35.6971 31.8217 36.879 30.8123 37.3276C29.8029 37.7762 28.621 37.3217 28.1724 36.3123L25.5891 30.5H14.4109L11.8276 36.3123C11.379 37.3217 10.1971 37.7762 9.18773 37.3276C8.17837 36.879 7.72378 35.6971 8.17239 34.6877L10.0336 30.5H9C7.34315 30.5 6 29.1569 6 27.5V7.38304ZM29 18.5001H21.5V6.51855C24.8516 6.60226 27.212 6.95363 28.5813 7.22675C29.4342 7.39689 30 8.15691 30 9.02665V17.5001C30 18.0524 29.5523 18.5001 29 18.5001ZM11.4187 7.22675C12.788 6.95363 15.1484 6.60226 18.5 6.51855V18.5001H11C10.4477 18.5001 10 18.0524 10 17.5001V9.02665C10 8.15691 10.5658 7.39689 11.4187 7.22675ZM11 26.5C12.1046 26.5 13 25.6046 13 24.5C13 23.3954 12.1046 22.5 11 22.5C9.89543 22.5 9 23.3954 9 24.5C9 25.6046 9.89543 26.5 11 26.5ZM31 24.5C31 25.6046 30.1046 26.5 29 26.5C27.8954 26.5 27 25.6046 27 24.5C27 23.3954 27.8954 22.5 29 22.5C30.1046 22.5 31 23.3954 31 24.5Z" class="st0" clip-rule="evenodd"/></svg>

<svg xmlns="http://www.w3.org/2000/svg" viewBox="0 0 40 40"><path d="M6 7.383C6 5.661 7.104 4.141 8.783 3.76A51.5 51.5 0 0 1 20 2.5c4.7 0 8.708.69 11.217 1.26C32.896 4.14 34 5.66 34 7.383V27.5a3 3 0 0 1-3 3h-1.034l1.862 4.188a2 2 0 1 1-3.656 1.624L25.59 30.5H14.411l-2.583 5.812a2 2 0 1 1-3.656-1.624l1.862-4.188H9a3 3 0 0 1-3-3zM29 18.5h-7.5V6.52c3.352.083 5.712.435 7.081.708.853.17 1.419.93 1.419 1.8V17.5a1 1 0 0 1-1 1M11.419 7.227c1.369-.273 3.73-.625 7.081-.708V18.5H11a1 1 0 0 1-1-1V9.027c0-.87.566-1.63 1.419-1.8M11 26.5a2 2 0 1 0 0-4 2 2 0 0 0 0 4m20-2a2 2 0 1 1-4 0 2 2 0 0 1 4 0" style="fill-rule:evenodd;clip-rule:evenodd"/></svg>
